2021/src/assets/icons/social/facebook.svg

<?xml version="1.0" encoding="UTF-8"?>
<svg fill="none" viewBox="0 0 15 24" xmlns="http://www.w3.org/2000/svg">
<path d="m9.3396 24h-3.8509c-0.64322 0-1.1665-0.5222-1.1665-1.1642v-8.6689h-2.2467c-0.64322 0-1.1665-0.5224-1.1665-1.1642v-3.7147c0-0.64197 0.52324-1.1642 1.1665-1.1642h2.2467v-1.8602c0-1.8444 0.5803-3.4136 1.678-4.5377 1.1026-1.1292 2.6435-1.726 4.4562-1.726l2.9369 0.0047607c0.6421 0.0010987 1.1644 0.52332 1.1644 1.1642v3.449c0 0.64197-0.523 1.1642-1.1661 1.1642l-1.9773 7.3e-4c-0.6031 0-0.7566 0.12066-0.7895 0.15765-0.0541 0.06134-0.1185 0.23474-0.1185 0.71356v1.4696h2.7367c0.2061 0 0.4057 0.05072 0.5772 0.1463 0.37 0.20636 0.6001 0.59656 0.6001 1.0182l-0.0015 3.7147c0 0.6416-0.5232 1.1638-1.1664 1.1638h-2.7461v8.6691c0 0.642-0.52343 1.1642-1.1666 1.1642zm-3.6076-1.407h3.3644v-9.056c0-0.4287 0.3495-0.7773 0.77881-0.7773h3.1339l0.0013-3.2289h-3.1354c-0.42931 0-0.77863-0.34863-0.77863-0.77728v-2.0995c0-0.54968 0.05596-1.1748 0.47169-1.6446 0.50234-0.56799 1.2939-0.63354 1.8458-0.63354l1.7341-7.4e-4v-2.9637l-2.6927-0.0044c-2.913 0-4.7233 1.8611-4.7233 4.8567v2.4899c0 0.42847-0.34932 0.77728-0.77863 0.77728h-2.6345v3.2289h2.6345c0.42931 0 0.77863 0.3486 0.77863 0.7773v9.056zm7.6585-21.181h2e-4 -2e-4z" fill="#0E3256"/>
</svg>

<svg width="15" height="24" viewBox="0 0 15 24" fill="none" xmlns="http://www.w3.org/2000/svg">
<path d="M9.33965 24H5.48874C4.84552 24 4.32228 23.4778 4.32228 22.8358V14.1669H2.07558C1.43236 14.1669 0.909119 13.6445 0.909119 13.0027V9.28803C0.909119 8.64606 1.43236 8.12384 2.07558 8.12384H4.32228V6.26367C4.32228 4.41925 4.90258 2.85004 6.00024 1.72595C7.10286 0.596741 8.64377 0 10.4564 0L13.3933 0.00476072C14.0354 0.00585938 14.5577 0.528076 14.5577 1.16895V4.61792C14.5577 5.25989 14.0347 5.78211 13.3916 5.78211L11.4143 5.78284C10.8112 5.78284 10.6577 5.9035 10.6248 5.94049C10.5707 6.00183 10.5063 6.17523 10.5063 6.65405V8.12366H13.243C13.4491 8.12366 13.6487 8.17438 13.8202 8.26996C14.1902 8.47632 14.4203 8.86652 14.4203 9.28821L14.4188 13.0029C14.4188 13.6445 13.8956 14.1667 13.2524 14.1667H10.5063V22.8358C10.5063 23.4778 9.98287 24 9.33965 24V24ZM5.73202 22.593H9.09637V13.537C9.09637 13.1083 9.44587 12.7597 9.87518 12.7597H13.0091L13.0104 9.53082H9.875C9.44569 9.53082 9.09637 9.18219 9.09637 8.75354V6.65405C9.09637 6.10437 9.15233 5.47925 9.56806 5.0094C10.0704 4.44141 10.862 4.37586 11.4139 4.37586L13.148 4.37512V1.41138L10.4553 1.40698C7.54225 1.40698 5.73202 3.26807 5.73202 6.26367V8.75354C5.73202 9.18201 5.3827 9.53082 4.95339 9.53082H2.31885V12.7597H4.95339C5.3827 12.7597 5.73202 13.1083 5.73202 13.537V22.593ZM13.3905 1.41174H13.3907H13.3905Z" fill="#0E3256"/>
</svg>
